X:27
T:Reel de Napoleon
C:Joseph Allard
M:2/4
L:1/16
Z:abc by Bruce Osborne - bosborne@kos.net
K:C
GF|EGGc AFAF|EGed Bcdf|ecGc AFAF|EGBd cBc2|!
EGGc AFAF|EGed Bcdf|ecAc AFAF|EGBd c2:|!
|:ef|gcac gcea|g2ec Bddf|ecca gedc|BGAB cBce|!
gcac gcea|g2ec Bddf|ecGc AFAF|EGBd c2:|!
